X: 15576
T: Gloucester, The
R: hornpipe
M: 4/4
K: Gmajor
|:(3DEF|G2g2g2 d>B|c>Bc>d e>fg>e|d>BG>B e>dc>B|A>Bc>A G>FE>D|
G2g2g2 d>B|c>Bc>d e>fg>e|d>BG>B e>cA>F|G2 G2 G2:|
|:(3FGA|B2 B>A B>cd>B|c>Bc>d e>fg>e|d>BG>B e>dc>B|A>Bc>A G>FE>D|
B2 B>A B>cd>B|c>Bc>d e>fg>e|d>BG>B e>cA>F|G2 G2 G2:|

